src/16/panel/si-syncthing-8.svg

<svg xmlns="http://www.w3.org/2000/svg" width="16" height="16" version="1.1">
 <defs>
  <style id="current-color-scheme" type="text/css">
   .ColorScheme-Text { color:#dfdfdf; } .ColorScheme-Highlight { color:#5294e2; }
  </style>
 </defs>
 <path style="fill:currentColor" class="ColorScheme-Text" d="M 4.5,14.062178 A 7,7 0 0 0 14.062178,11.5 7,7 0 0 0 11.5,1.9378223 7,7 0 0 0 1.9378223,4.5 7,7 0 0 0 4.5,14.062178 Z M 5.5000001,12.330127 A 5,5 0 0 1 3.2776918,6.3628721 1.5,1.5 0 0 1 3.0538483,4.5669877 1.5,1.5 0 0 1 5.0332741,3.9822702 5,5 0 0 1 8.5623478,3.0337984 1.5,1.5 0 0 1 10.566988,2.5538484 1.5,1.5 0 0 1 11.270098,4.2227431 5,5 0 0 1 12.330127,10.5 a 5,5 0 0 1 -0.0447,0.07343 1.5,1.5 0 0 1 0.160685,1.725589 1.5,1.5 0 0 1 -2.049038,0.549039 1.5,1.5 0 0 1 -0.357975,-0.290127 5,5 0 0 1 -4.5390969,-0.2278 z m 0.4999998,-0.866025 a 4,4 0 0 0 3.6498057,0.174447 1.5,1.5 0 0 1 0.1982708,-0.839511 1.5,1.5 0 0 1 0.03365,-0.05048 L 8.2988169,8.7363406 A 1.5,1.5 0 0 1 7.0669875,8.6160255 1.5,1.5 0 0 1 6.3440649,7.0439454 L 5.3258082,6.4560546 A 1.5,1.5 0 0 1 4.1883077,6.8051711 4,4 0 0 0 5.9999999,11.464102 Z m 4.6669771,-1.33344 a 1.5,1.5 0 0 1 0.74882,-0.05481 A 4,4 0 0 0 11.464102,10 4,4 0 0 0 10.706276,5.0586862 1.5,1.5 0 0 1 9.5439456,5.325808 L 8.9560549,6.3440649 a 1.5,1.5 0 0 1 0.1599707,1.7229225 1.5,1.5 0 0 1 -0.03366,0.050481 L 10.666977,10.130662 Z M 6.8440651,6.1779202 A 1.5,1.5 0 0 1 8.0900294,5.8440651 L 8.6779201,4.8258079 A 1.5,1.5 0 0 1 8.3299998,4.0182684 4,4 0 0 0 5.7260141,4.7160039 a 1.5,1.5 0 0 1 0.09979,0.8740254 l 1.0182609,0.5878909 z"/>
</svg>

<svg xmlns="http://www.w3.org/2000/svg" width="16" height="16"><defs><style id="current-color-scheme" type="text/css"></style></defs><path d="M4.5 14.062a7 7 0 0 0 9.562-2.562A7 7 0 0 0 11.5 1.938 7 7 0 0 0 1.938 4.5 7 7 0 0 0 4.5 14.062zm1-1.732a5 5 0 0 1-2.222-5.967 1.5 1.5 0 0 1-.224-1.796 1.5 1.5 0 0 1 1.98-.585 5 5 0 0 1 3.528-.948 1.5 1.5 0 0 1 2.005-.48 1.5 1.5 0 0 1 .703 1.669 5 5 0 0 1 1.06 6.277 5 5 0 0 1-.045.073 1.5 1.5 0 0 1 .161 1.726 1.5 1.5 0 0 1-2.049.55 1.5 1.5 0 0 1-.358-.291A5 5 0 0 1 5.5 12.33zm.5-.866a4 4 0 0 0 3.65.175 1.5 1.5 0 0 1 .198-.84 1.5 1.5 0 0 1 .034-.05L8.299 8.736a1.5 1.5 0 0 1-1.232-.12 1.5 1.5 0 0 1-.723-1.572l-1.018-.588a1.5 1.5 0 0 1-1.138.35A4 4 0 0 0 6 11.463zm4.667-1.333a1.5 1.5 0 0 1 .749-.055 4 4 0 0 0 .048-.076 4 4 0 0 0-.758-4.941 1.5 1.5 0 0 1-1.162.267l-.588 1.018a1.5 1.5 0 0 1 .16 1.723 1.5 1.5 0 0 1-.034.05l1.585 2.014zM6.844 6.178a1.5 1.5 0 0 1 1.246-.334l.588-1.018a1.5 1.5 0 0 1-.348-.808 4 4 0 0 0-2.604.698 1.5 1.5 0 0 1 .1.874l1.018.588z" fill="currentColor" color="#dfdfdf"/></svg>
